X: 28988
T: Natterjack's
R: reel
M: 4/4
K: Amajor
EAcd|:E2 A/B/c decB|Acea gece|d~B3 Bcde|~f2fa gecA|
E2 A/B/c decB|Acea gece|d~B3 Bcdf|1 ecBd cAAF:|2 ecBd cAAf||
|:fece a2 f/f/f|efc2 BcAF|~E3F ABcd-|dBcA Bcdf|
fece a2 f/f/f|efc2 BcAf|~E3F ABcf|1 ecBd cAAf:|2 ecBd cAAf||

